X: 145127
T: TRUMPET HORNPIPE
R: Hornpipe.
%R: hornpipe, reel
B: James Kerr "Merry Melodies" v.1 p.45 s.1 #27
Z: 2016 John Chambers <jc:trillian.mit.edu>
M: C
L: 1/8
K: G
|:\
(3GGG G2 (3GGG G2 | BGBd gdBG |\
(3DDD D2 (3DDD D2 | FDFA cAFD |\
(3GGG G2 (3GGG G2 | BGBd g2g2 |\
fbag fed^c | d2d2 d2z2 :|
|:\
(3ddd d2 (3ddd d2 | efgf edcB |\
cded cBAG | FGAG FDEF |\
(3GGG G2 EGDG | (3GGG G2 EGEG |\
Fedc BAGF | G2G2 G2z2 |]

%%sep 1 1 500
%%sep 1 1 500

